assets/icons/foldersOpen/composer.svg

<!--
  - The MIT License (MIT)
  -
  - Copyright (c) 2015-2021 Elior "Mallowigi" Boukhobza
  -
  - Permission is hereby granted, free of charge, to any person obtaining a copy
  - of this software and associated documentation files (the "Software"), to deal
  - in the Software without restriction, including without limitation the rights
  - to use, copy, modify, merge, publish, distribute, sublicense, and/or sell
  - copies of the Software, and to permit persons to whom the Software is
  - furnished to do so, subject to the following conditions:
  -
  - The above copyright notice and this permission notice shall be included in all
  - copies or substantial portions of the Software.
  -
  - THE SOFTWARE IS PROVIDED "AS IS", WITHOUT WARRANTY OF ANY KIND, EXPRESS OR
  - IMPLIED, INCLUDING BUT NOT LIMITED TO THE WARRANTIES OF MERCHANTABILITY,
  - FITNESS FOR A PARTICULAR PURPOSE AND NONINFRINGEMENT. IN NO EVENT SHALL THE
  - AUTHORS OR COPYRIGHT HOLDERS BE LIABLE FOR ANY CLAIM, DAMAGES OR OTHER
  - LIABILITY, WHETHER IN AN ACTION OF CONTRACT, TORT OR OTHERWISE, ARISING FROM,
  - OUT OF OR IN CONNECTION WITH THE SOFTWARE OR THE USE OR OTHER DEALINGS IN THE
  - SOFTWARE.
  -
  -
  -->

<svg big="true" clip-rule="evenodd" fill-rule="evenodd" stroke-linejoin="round" stroke-miterlimit="1.4142" version="1.1"
     viewBox="0 0 24 24" width="16px" height="16px" xml:space="preserve" xmlns="http://www.w3.org/2000/svg">
    <path d="m10 4h-6c-1.11 0-2 0.89-2 2v12c0 1.097 0.903 2 2 2h16c1.097 0 2-0.903 2-2v-10c0-1.11-0.9-2-2-2h-8l-2-2z"
          fill="#F9A825" fill-rule="nonzero" />
    <path fill="#FFECB3" transform="scale(0.027) translate(480 400)"
          d="M352.4956055,394.7627563c-1.5884399-2.5421753,2.0658569-20.6401672,5.4033203-27.1372986c1.9063721-3.8138123,4.4496155-12.6947021,5.5617371-19.6875305c4.6080322-27.6136475,10.3109436-49.9845276,16.6669006-65.2213745c13.4899902-31.9048309,14.7605286-36.6540222,12.6946716-45.5532227c-1.1121216-4.2901154-1.5884399-9.83461-0.9526367-12.535202c0.4763184-2.5432434,0.1584167-6.5154572-0.6358032-8.7224731c-1.1121521-3.0195618-1.1121521-4.9259186,0.1584167-6.355957c1.4300232-1.9074402,0.4773865-3.9732971-4.9259338-10.3120117c-3.6542969-4.2901154-6.5143738-8.0855865-6.1975403-8.2450867c0.3179016-0.3179016,3.1790466-1.5884399,6.1975403-2.8600616l5.5617371-2.5421753l1.5895386-21.7350616c0.9537048-11.9004669,1.4300232-21.5939026,1.4300232-21.5939026c-0.1594849,0-7.1329346,2.0658569-15.7142334,4.7675171c-8.5629883,2.54216-16.348999,4.7675018-17.4622192,4.7675018c-2.2242432,0-4.2901001-4.1316986-11.1051331-23.1651001c-4.4496155-12.0588684-5.2438354-15.8726654-4.4496155-23.8009186c0.9537048-10.9467392-2.8600769-36.1776886-7.6092529-50.3024139c-6.3570557-19.0506477-20.0324097-49.9147301-26.5478516-52.7758865c-5.5617371-2.7005839-9.5166931-2.0658498-11.58255,1.5895296c-2.0658569,3.9722078-1.9063721,4.449605,5.5617371,21.7350674l5.7201538,13.3304958l-9.8335266-7.7870789c-22.0529785-17.1442909-43.3289795-28.726841-55.3878479-30.1568794c-7.6275787-0.9526402-7.9282532-0.794226-9.6761932,3.973285c-1.1121216,2.7005839-3.1779785,5.2438316-4.7664337,5.5617371c-2.0658417,0.6358118-2.8600769,2.3837557-2.8600769,6.8150415c0,5.5617371,1.2705536,7.1501884,16.3489838,21.575573c8.8808899,8.4045715,15.5547638,15.396347,14.9200287,15.55476c-0.6358032,0-6.8333588-3.6543007-13.4899902-8.245079c-9.9930115-6.6738663-13.4889069-8.245079-19.2101288-8.4045677c-13.329422,0-13.0125885,9.1987953,0.6358032,18.892231c4.7675171,3.4958878,14.2842102,11.9004555,20.9580841,18.892231l12.37677,12.6946869l-11.1051483,1.9074326c-17.4621887,3.1779861-24.4367218,5.4022522-26.1846619,8.8808899c-3.3363953,6.1975555-1.2705536,7.9271774,17.1442871,13.9663086c9.83461,3.3363953,19.3685455,7.4508591,21.41716,9.1987991c6.355957,5.8796463,14.4878845,10.5590515,23.0519409,13.4202118c5.5617371,1.7479401,9.0393066,3.9722137,10.1514587,6.355957c0.9537048,2.0658569,3.3374634,4.4496155,5.4033203,5.4022522c2.5421448,1.1121368,4.449585,4.1316986,6.355957,10.4704132c1.4300232,4.9259338,2.2242737,9.3572083,1.7479248,9.83461c-0.4763184,0.3179169-6.9917603,2.7016602-14.442627,4.9259338l-13.6483765,4.2901154l11.58255,20.6229248c10.6288147,19.210144,11.7409668,20.6401825,15.8726501,20.1627808c5.2438354-0.4763184,5.2438354-0.4763184,0.7953186,6.9917755l-3.4959106,5.8796387l3.6543274,6.6738739c2.383728,4.6091003,3.1779785,8.0866699,2.5421448,10.3120117c-0.9526367,3.0184784-1.5884399,2.54216-4.7664185-4.2911987c-4.1317139-8.8808899-15.3963623-23.6414185-22.2113953-29.3615723c-11.7420349-9.5167084-16.6679688-11.4241333-31.9048157-11.58255l-14.2842102-0.3179016l-7.4508514-7.1512756c-3.9722137-3.9722137-11.4230652-9.1987915-16.5084839-11.7409668c-8.7224731-4.2901154-10.3109283-4.608017-29.044754-4.608017h-19.8448639l-15.0784454,7.9271698c-19.3696289,9.9941101-39.3556747,29.6805573-51.8919449,50.7798157c-4.608017,7.7687531-8.4045715,13.3304901-8.4045715,12.5351868c-0.1584091-0.79422-0.79422-4.4485168-1.4300308-8.0866547c-1.270546-6.4971313-1.270546-6.6555481,3.4958801-7.1501923c4.6091003-0.4763184,4.9259262-0.9537201,8.2461624-14.7605286c1.9063568-7.9282532,3.9722061-15.8726654,4.608017-17.6206207c0.9537201-3.1779785,0-3.6553802-13.3304977-6.9917755c-10.7883224-2.7016602-14.2842102-4.1316986-14.2842102-6.1975403c0-4.9259338,4.608017-19.5280457,6.8150406-22.2113953c1.2716217-1.4300385,2.7016602-3.9732819,3.0195694-5.7212219c0.3179016-1.7479401,3.6553726-4.9259338,7.7687531-7.1501923c11.1062317-6.0391388,11.7409668-6.815033,23.3235245-29.2031631c8.4045639-16.3500595,13.0125809-23.3245926,22.0529709-33.0169525c6.355957-6.8161163,11.58255-13.0125885,11.58255-13.6483994c0-2.7016602-6.5154572-9.83461-8.8808899-9.83461l62.3796082-44.2083206l-6.9917755-8.2644768c0,0-89.0233612,61.97118-89.4996796,61.97118c-0.4773941,0-2.3837509-4.7664337-4.2901154-10.4693451l-3.337471-10.3109245L113.5197906,46.07061c11.5825577-10.9467392,14.1247253-15.2368526,11.1062317-18.8922329c-1.4311142-1.7479439-4.2911911-0.9526405-16.3500595,4.9259243c-8.0866623,3.9732857-20.48069,8.8819695-27.7731247,11.2646484c-12.2183609,3.8137932-13.3304977,3.8137932-16.0321579,1.4311142c-6.6738701-6.039135-10.9467392-2.3837547-27.4552193,23.1640244c-3.3363953,5.0854187-6.5154533,9.1987991-7.132946,9.1987991c-0.7942257,0-4.7675095-6.1964722-9.0403824-13.965229c-4.2901134-7.6103439-9.1987953-15.396347-10.9467392-17.4621964c-4.2901139-4.6080208-8.4034929-4.449604-9.6751165,0.3179054c-1.5895296,6.3559647,5.5617375,35.4007111,16.9847984,70.4651947c3.6553783,10.9467392,3.8137932,11.5825577,1.1121311,13.0125961c-2.5421696,1.2716217-2.7005835,2.2253418-1.1121311,6.3570404c1.2716236,3.4958801,2.5432472,4.4485168,4.6090965,3.8137817c2.382679-0.6358032,3.8127155,1.1121368,7.4508533,9.3572235c4.6080189,10.1525116,4.6080189,10.3109283,2.0647717,19.5280457c-1.4300385,5.2438202-2.5421696,9.5166931-2.7005844,9.6751099c0,0.1594849-3.9732838-0.6358185-8.7224751-1.9063568c-14.4426289-3.813797-13.4889107-4.9259338-15.55476,18.5743256c-1.1121318,11.58255-1.9074357,22.21138-1.9074357,23.6414185c0,1.9063721,2.0658495,3.019577,7.2924385,3.813797l7.2913609,0.9537201l-1.1121311,9.5167084c-0.9526405,7.6092682-0.6358118,10.1514282,1.4300385,12.37677c2.7016602,2.8600769,3.4958858,20.162796,3.9732838,82.2072296l0.1584148,22.369812l6.039135,1.9074402c7.4680958,2.5421753,11.4230595,5.8785706,11.4230595,10.1514282c0,2.0658569,2.5421715,5.0854187,6.8150406,8.0866699c3.6553802,2.5432434,17.6206093,12.6946716,30.7926941,22.5292969c14.4523239,10.6708679,20.2533035,15.0719604,22.1844406,17.7359009c31.4048004,21.9570618,98.4420013,60.6758728,98.4420013,60.6758728l-2.700592,5.87854C190.1825409,485.4974365,183.0495911,510.2692871,184.1617279,512l68.8422546-42.6047974L352.4956055,394.7627563z" />
</svg>

<!--
  - The MIT License (MIT)
  -
  - Copyright (c) 2015-2021 Elior "Mallowigi" Boukhobza
  -
  - Permission is hereby granted, free of charge, to any person obtaining a copy
  - of this software and associated documentation files (the "Software"), to deal
  - in the Software without restriction, including without limitation the rights
  - to use, copy, modify, merge, publish, distribute, sublicense, and/or sell
  - copies of the Software, and to permit persons to whom the Software is
  - furnished to do so, subject to the following conditions:
  -
  - The above copyright notice and this permission notice shall be included in all
  - copies or substantial portions of the Software.
  -
  - THE SOFTWARE IS PROVIDED "AS IS", WITHOUT WARRANTY OF ANY KIND, EXPRESS OR
  - IMPLIED, INCLUDING BUT NOT LIMITED TO THE WARRANTIES OF MERCHANTABILITY,
  - FITNESS FOR A PARTICULAR PURPOSE AND NONINFRINGEMENT. IN NO EVENT SHALL THE
  - AUTHORS OR COPYRIGHT HOLDERS BE LIABLE FOR ANY CLAIM, DAMAGES OR OTHER
  - LIABILITY, WHETHER IN AN ACTION OF CONTRACT, TORT OR OTHERWISE, ARISING FROM,
  - OUT OF OR IN CONNECTION WITH THE SOFTWARE OR THE USE OR OTHER DEALINGS IN THE
  - SOFTWARE.
  -
  -
  -->

<svg big="true" clip-rule="evenodd" fill-rule="evenodd" stroke-linejoin="round" stroke-miterlimit="1.4142" version="1.1"
     viewBox="0 0 24 24" width="16px" height="16px" xml:space="preserve" xmlns="http://www.w3.org/2000/svg">
    <path fill="#F9A825"
          d="M20,18H4V8H20M20,6H12L10,4H4C2.89,4 2,4.89 2,6V18A2,2 0 0,0 4,20H20A2,2 0 0,0 22,18V8C22,6.89 21.1,6 20,6Z" />
    <path fill="#FFECB3" transform="scale(0.027) translate(480 400)"
          d="M352.4956055,394.7627563c-1.5884399-2.5421753,2.0658569-20.6401672,5.4033203-27.1372986c1.9063721-3.8138123,4.4496155-12.6947021,5.5617371-19.6875305c4.6080322-27.6136475,10.3109436-49.9845276,16.6669006-65.2213745c13.4899902-31.9048309,14.7605286-36.6540222,12.6946716-45.5532227c-1.1121216-4.2901154-1.5884399-9.83461-0.9526367-12.535202c0.4763184-2.5432434,0.1584167-6.5154572-0.6358032-8.7224731c-1.1121521-3.0195618-1.1121521-4.9259186,0.1584167-6.355957c1.4300232-1.9074402,0.4773865-3.9732971-4.9259338-10.3120117c-3.6542969-4.2901154-6.5143738-8.0855865-6.1975403-8.2450867c0.3179016-0.3179016,3.1790466-1.5884399,6.1975403-2.8600616l5.5617371-2.5421753l1.5895386-21.7350616c0.9537048-11.9004669,1.4300232-21.5939026,1.4300232-21.5939026c-0.1594849,0-7.1329346,2.0658569-15.7142334,4.7675171c-8.5629883,2.54216-16.348999,4.7675018-17.4622192,4.7675018c-2.2242432,0-4.2901001-4.1316986-11.1051331-23.1651001c-4.4496155-12.0588684-5.2438354-15.8726654-4.4496155-23.8009186c0.9537048-10.9467392-2.8600769-36.1776886-7.6092529-50.3024139c-6.3570557-19.0506477-20.0324097-49.9147301-26.5478516-52.7758865c-5.5617371-2.7005839-9.5166931-2.0658498-11.58255,1.5895296c-2.0658569,3.9722078-1.9063721,4.449605,5.5617371,21.7350674l5.7201538,13.3304958l-9.8335266-7.7870789c-22.0529785-17.1442909-43.3289795-28.726841-55.3878479-30.1568794c-7.6275787-0.9526402-7.9282532-0.794226-9.6761932,3.973285c-1.1121216,2.7005839-3.1779785,5.2438316-4.7664337,5.5617371c-2.0658417,0.6358118-2.8600769,2.3837557-2.8600769,6.8150415c0,5.5617371,1.2705536,7.1501884,16.3489838,21.575573c8.8808899,8.4045715,15.5547638,15.396347,14.9200287,15.55476c-0.6358032,0-6.8333588-3.6543007-13.4899902-8.245079c-9.9930115-6.6738663-13.4889069-8.245079-19.2101288-8.4045677c-13.329422,0-13.0125885,9.1987953,0.6358032,18.892231c4.7675171,3.4958878,14.2842102,11.9004555,20.9580841,18.892231l12.37677,12.6946869l-11.1051483,1.9074326c-17.4621887,3.1779861-24.4367218,5.4022522-26.1846619,8.8808899c-3.3363953,6.1975555-1.2705536,7.9271774,17.1442871,13.9663086c9.83461,3.3363953,19.3685455,7.4508591,21.41716,9.1987991c6.355957,5.8796463,14.4878845,10.5590515,23.0519409,13.4202118c5.5617371,1.7479401,9.0393066,3.9722137,10.1514587,6.355957c0.9537048,2.0658569,3.3374634,4.4496155,5.4033203,5.4022522c2.5421448,1.1121368,4.449585,4.1316986,6.355957,10.4704132c1.4300232,4.9259338,2.2242737,9.3572083,1.7479248,9.83461c-0.4763184,0.3179169-6.9917603,2.7016602-14.442627,4.9259338l-13.6483765,4.2901154l11.58255,20.6229248c10.6288147,19.210144,11.7409668,20.6401825,15.8726501,20.1627808c5.2438354-0.4763184,5.2438354-0.4763184,0.7953186,6.9917755l-3.4959106,5.8796387l3.6543274,6.6738739c2.383728,4.6091003,3.1779785,8.0866699,2.5421448,10.3120117c-0.9526367,3.0184784-1.5884399,2.54216-4.7664185-4.2911987c-4.1317139-8.8808899-15.3963623-23.6414185-22.2113953-29.3615723c-11.7420349-9.5167084-16.6679688-11.4241333-31.9048157-11.58255l-14.2842102-0.3179016l-7.4508514-7.1512756c-3.9722137-3.9722137-11.4230652-9.1987915-16.5084839-11.7409668c-8.7224731-4.2901154-10.3109283-4.608017-29.044754-4.608017h-19.8448639l-15.0784454,7.9271698c-19.3696289,9.9941101-39.3556747,29.6805573-51.8919449,50.7798157c-4.608017,7.7687531-8.4045715,13.3304901-8.4045715,12.5351868c-0.1584091-0.79422-0.79422-4.4485168-1.4300308-8.0866547c-1.270546-6.4971313-1.270546-6.6555481,3.4958801-7.1501923c4.6091003-0.4763184,4.9259262-0.9537201,8.2461624-14.7605286c1.9063568-7.9282532,3.9722061-15.8726654,4.608017-17.6206207c0.9537201-3.1779785,0-3.6553802-13.3304977-6.9917755c-10.7883224-2.7016602-14.2842102-4.1316986-14.2842102-6.1975403c0-4.9259338,4.608017-19.5280457,6.8150406-22.2113953c1.2716217-1.4300385,2.7016602-3.9732819,3.0195694-5.7212219c0.3179016-1.7479401,3.6553726-4.9259338,7.7687531-7.1501923c11.1062317-6.0391388,11.7409668-6.815033,23.3235245-29.2031631c8.4045639-16.3500595,13.0125809-23.3245926,22.0529709-33.0169525c6.355957-6.8161163,11.58255-13.0125885,11.58255-13.6483994c0-2.7016602-6.5154572-9.83461-8.8808899-9.83461l62.3796082-44.2083206l-6.9917755-8.2644768c0,0-89.0233612,61.97118-89.4996796,61.97118c-0.4773941,0-2.3837509-4.7664337-4.2901154-10.4693451l-3.337471-10.3109245L113.5197906,46.07061c11.5825577-10.9467392,14.1247253-15.2368526,11.1062317-18.8922329c-1.4311142-1.7479439-4.2911911-0.9526405-16.3500595,4.9259243c-8.0866623,3.9732857-20.48069,8.8819695-27.7731247,11.2646484c-12.2183609,3.8137932-13.3304977,3.8137932-16.0321579,1.4311142c-6.6738701-6.039135-10.9467392-2.3837547-27.4552193,23.1640244c-3.3363953,5.0854187-6.5154533,9.1987991-7.132946,9.1987991c-0.7942257,0-4.7675095-6.1964722-9.0403824-13.965229c-4.2901134-7.6103439-9.1987953-15.396347-10.9467392-17.4621964c-4.2901139-4.6080208-8.4034929-4.449604-9.6751165,0.3179054c-1.5895296,6.3559647,5.5617375,35.4007111,16.9847984,70.4651947c3.6553783,10.9467392,3.8137932,11.5825577,1.1121311,13.0125961c-2.5421696,1.2716217-2.7005835,2.2253418-1.1121311,6.3570404c1.2716236,3.4958801,2.5432472,4.4485168,4.6090965,3.8137817c2.382679-0.6358032,3.8127155,1.1121368,7.4508533,9.3572235c4.6080189,10.1525116,4.6080189,10.3109283,2.0647717,19.5280457c-1.4300385,5.2438202-2.5421696,9.5166931-2.7005844,9.6751099c0,0.1594849-3.9732838-0.6358185-8.7224751-1.9063568c-14.4426289-3.813797-13.4889107-4.9259338-15.55476,18.5743256c-1.1121318,11.58255-1.9074357,22.21138-1.9074357,23.6414185c0,1.9063721,2.0658495,3.019577,7.2924385,3.813797l7.2913609,0.9537201l-1.1121311,9.5167084c-0.9526405,7.6092682-0.6358118,10.1514282,1.4300385,12.37677c2.7016602,2.8600769,3.4958858,20.162796,3.9732838,82.2072296l0.1584148,22.369812l6.039135,1.9074402c7.4680958,2.5421753,11.4230595,5.8785706,11.4230595,10.1514282c0,2.0658569,2.5421715,5.0854187,6.8150406,8.0866699c3.6553802,2.5432434,17.6206093,12.6946716,30.7926941,22.5292969c14.4523239,10.6708679,20.2533035,15.0719604,22.1844406,17.7359009c31.4048004,21.9570618,98.4420013,60.6758728,98.4420013,60.6758728l-2.700592,5.87854C190.1825409,485.4974365,183.0495911,510.2692871,184.1617279,512l68.8422546-42.6047974L352.4956055,394.7627563z" />
</svg>
